X: 1651
T: Sabâ Örnek-öz (1)
C: Rûhî Ayangil
O: Turkey
F: http://compmusic.upf.edu/node/140
N: saba--ornek-oz--sofyan--1--ruhi_ayangil
N: makam= saba
N: form= ornek-oz
N: usul= sofyan = 4/4
M: 4/4
L: 1/16
K: C _2/4B _3/4d  
Q: 1/4=54
%%MIDI tuningsystem comma53
cdcB cBAB c4 B4  | _1/4BcBA BAGA B4 A4  | \
w:   |   | 
efgf e_7/8dce _3/4d4 _1/4B4  | 
w:   | 
c_1/4BAe dcBc B2A6  | |


